X:1
T:The Rainbow Round the Throne
T:The Rainbow Round the Throne
T:John Robson Sweney
T:Frances Jane (Fanny) Crosby, 1891
T:Public Domain Courtesy of the Cyber Hymnal™
T:Public Domain Courtesy of the Cyber Hymnal™
C:John Robson Sweney
Z:Public Domain
Z:Courtesy of the Cyber Hymnal™
%%score ( 1 2 ) ( 3 4 )
L:1/8
Q:1/4=110
M:4/4
K:Eb
V:1 treble 
V:2 treble 
V:3 bass 
V:4 bass 
V:1
 E[EF] | [EG]2 [EG]2 [DG]2 [DF]2 | E4 E2 E[EG] | [EB]2 [EB]2 [EB]2 [DA]2 | [EG]6 [GB][GB] | %5
w: 1.~When the|clouds hang dark and|hea- vy, And the|roll- ing surge we|hear, When no|
w: 2.~When we|stand a- mid the|con- flict Of the|bat- tle rag- ing|high, When the|
w: 3.~When the|veil of time is|lift- ed, And the|sha- dows melt a-|way, When we|
 [Ge]2 [Ge]2 [Ae]2 [Ac]2 | [GB]4 [EG]2 E[EF] | [EG]2 [EG]2 [B,F]2 [CE]2 | [DF]6 [DF][EG] | %9
w: earth- ly power can|shield us From the|storm that most we|fear, O ’tis|
w: tempt- er seems to|tri- umph, And our|ranks de- spond- ing|fly, With the|
w: fall a- sleep in|Je- sus, And a-|wake in end- less|day, When the|
 [FA]2 [=EG]2 [FA]2 [EG]2 | [FA]4 [DF]2 [DB][DA] | [EG]2 [E^F]2 [EG]2 [EF]2 | [EG]6 [GB][GB] | %13
w: then our Fa- ther’s|pre- sence To the|trust- ing heart is|shown, In a|
w: fleet- ness of an|ar- row God’s pro-|tect- ing care is|shown, In the|
w: bat- tle march is|end- ed, And our|cares and tears have|flown, We shall|
 [Ge]2 [Ge]2 [Ad]2 [Ac]2 | [GB]4 [EG]2 [EB][EB] | [DB]2 [DB]2 [DA]2 [DF]2 | E6 || %17
w: bright and glor- ious|vi- sion Of the|rain- bow round the|throne.|
w: bright- ness that de-|scend- eth From the|rain- bow round the|throne.|
w: gaze, and gaze for-|ev- er, On the|rain- bow round the|throne.|
"^Refrain" [GB][Ge] | [Fd]2 [FA]2 [FA]2 [FA]2 | [Ad]6 [Ac][Ad] | [Ac]2 [GB]2 [GB]2 [EG]2 | %21
w: ||||
w: O the|rain- bow round the|throne! Love- ly|rain- bow round the|
w: ||||
 [GB]6 [EG][EG] | ([DF][EG]) ([FA][GB]) [Ac]2 [Ad]2 | [Ge]2 [GB]4 [EB][EB] | %24
w: |||
w: throne! Ev- er|bril- * liant, * ev- er|spark- ling Shines the|
w: |||
 [DB]2 [DB]2 [DA]2 [DF]2 | E6 |] %26
w: ||
w: rain- bow round the|throne.|
w: ||
V:2
 E x | x8 | E4 E2 E x | x8 | x8 | x8 | x6 E x | x8 | x8 | x8 | x8 | x8 | x8 | x8 | x8 | x8 | E6 || %17
 x2 | x8 | x8 | x8 | x8 | x8 | x8 | x8 | E6 |] %26
V:3
 [E,G,][E,A,] | [E,B,]2 [E,B,]2 [B,,B,]2 [B,,A,]2 | [E,G,]4 [E,G,]2 [E,G,][E,B,] | %3
 [E,G,]2 [E,G,]2 [B,,F,]2 [B,,B,]2 | [E,B,]6 [E,B,][E,B,] | [E,B,]2 [E,B,]2 [A,C]2 [A,E]2 | %6
 [E,E]4 [E,B,]2 [E,G,][E,A,] | [E,B,]2 [E,B,]2 [D,F,]2 [C,=A,]2 | [B,,B,]6 [B,,B,][B,,B,] | %9
 [B,,B,]2 [B,,B,]2 [B,,B,]2 [B,,B,]2 | [B,,B,]4 [B,,B,]2 [B,,B,][B,,B,] | %11
 [E,B,]2 [E,=A,]2 [E,B,]2 [E,A,]2 | [E,B,]6 [E,B,][E,B,] | [E,B,]2 [E,B,]2 [E,C]2 [E,D]2 | %14
 [E,E]4 [E,B,]2 [E,G,][E,G,] | [B,,F,]2 [B,,F,]2 [B,,B,]2 [B,,A,]2 | [E,G,]6 || [E,B,][E,B,] | %18
 B,2 [B,D]2 [B,D]2 [B,D]2 | [B,F]6 [B,D][B,F] | [E,E]2 [E,E]2 [E,E]2 [E,B,]2 | %21
 [E,E]6 [E,B,][E,B,] | B,2 B,2 B,2 [B,,B,]2 | [E,B,]2 [E,E]4 [E,G,][E,G,] | %24
 [B,,F,]2 [B,,F,]2 [B,,B,]2 [B,,A,]2 | [E,G,]6 |] %26
V:4
 x2 | x8 | x8 | x8 | x8 | x8 | x8 | x8 | x8 | x8 | x8 | x8 | x8 | x8 | x8 | x8 | x6 || x2 | %18
 B,2 x6 | x8 | x8 | x8 | B,2 B,2 B,2 x2 | x8 | x8 | x6 |] %26

